m/partners/pnr01.svg

<svg width="55" height="46" viewBox="0 0 55 46" fill="none" xmlns="http://www.w3.org/2000/svg">
<g clip-path="url(#clip0_3268_6075)">
<path d="M11.5544 23.2898C17.8801 23.2898 23.0082 18.4135 23.0082 12.3982C23.0082 6.38284 17.8801 1.50647 11.5544 1.50647C5.22862 1.50647 0.100586 6.38284 0.100586 12.3982C0.100586 18.4135 5.22862 23.2898 11.5544 23.2898Z" stroke="#2B354E" stroke-width="0.122255" stroke-miterlimit="10"/>
<path d="M26.6635 44.4937H55.298L34.4619 10.3124L21.424 31.9799L21.0585 21.5517C20.0369 22.81 18.7263 23.8295 17.2269 24.5324C15.7275 25.2353 14.0789 25.6029 12.4072 25.6071V44.4937H23.7392L34.34 27.5769L39.8232 36.3829H31.2938L26.6635 44.4937Z" fill="#2B354E"/>
<path d="M1.44092 20.8566V44.378H10.4577V25.6072C8.67098 25.5316 6.92697 25.0632 5.36253 24.239C3.79809 23.4148 2.45578 22.257 1.44092 20.8566V20.8566Z" fill="#2B354E"/>
<path d="M8.87434 23.1737C6.93071 20.7886 5.70889 17.9441 5.34073 14.947C4.48779 9.73293 8.87434 3.24426 8.87434 3.24426C8.87434 3.24426 14.4794 22.015 14.6012 22.942" stroke="#2B354E" stroke-width="0.122255" stroke-miterlimit="10"/>
<path d="M19.7181 20.0455C19.7181 20.0455 20.9366 12.1664 15.2097 7.06821C11.5542 3.82388 8.87354 3.24453 8.87354 3.24453C8.87354 3.24453 19.7181 2.89693 23.008 10.8919" stroke="#2B354E" stroke-width="0.122255" stroke-miterlimit="10"/>
<path d="M2.41553 5.90942C4.12141 3.59204 8.87351 3.24443 8.87351 3.24443C8.87351 3.24443 8.75166 2.08574 8.99536 1.854" stroke="#2B354E" stroke-width="0.122255" stroke-miterlimit="10"/>
<path d="M11.5547 1.50647C10.4699 1.75941 9.51788 2.37668 8.87401 3.24451C8.87401 3.24451 7.28998 2.31755 6.31519 2.78103" stroke="#2B354E" stroke-width="0.122255" stroke-miterlimit="10"/>
<path d="M1.19727 17.0329C1.19727 17.0329 8.0208 20.0455 13.3821 18.655C18.7435 17.2646 22.6426 14.8314 23.0082 11.587" stroke="#2B354E" stroke-width="0.122255" stroke-miterlimit="10"/>
<path d="M0.100586 12.3978C0.100586 12.3978 6.07117 16.8009 13.1384 14.4835C20.2056 12.1661 21.6678 7.06787 21.6678 7.06787" stroke="#2B354E" stroke-width="0.122255" stroke-miterlimit="10"/>
<path d="M1.19727 7.76333C1.19727 7.76333 4.36533 11.7029 11.1889 10.1966C18.0124 8.69028 17.525 3.24443 17.525 3.24443C16.1242 2.73146 14.6393 2.45691 13.1384 2.43335C10.0896 2.46387 7.17646 3.63705 5.03189 5.69807C2.88732 7.75909 1.68449 10.5415 1.68466 13.4409C1.70295 15.1714 2.15461 16.8728 3.0022 18.4042C3.8498 19.9356 5.06894 21.2529 6.55861 22.247" stroke="#2B354E" stroke-width="0.122255" stroke-miterlimit="10"/>
<path d="M4.60913 20.9728C4.60913 20.9728 11.3108 22.4791 15.5755 20.741C18.2536 19.5955 20.6271 17.8928 22.5209 15.7587" stroke="#2B354E" stroke-width="0.122255" stroke-miterlimit="10"/>
<path d="M40.3109 14.1358C41.3876 14.1358 42.2605 13.3058 42.2605 12.2819C42.2605 11.258 41.3876 10.428 40.3109 10.428C39.2342 10.428 38.3613 11.258 38.3613 12.2819C38.3613 13.3058 39.2342 14.1358 40.3109 14.1358Z" stroke="#2B354E" stroke-width="0.122255" stroke-miterlimit="10"/>
</g>
<defs>
<clipPath id="clip0_3268_6075">
<rect width="55" height="46" fill="white"/>
</clipPath>
</defs>
</svg>

<svg xmlns="http://www.w3.org/2000/svg" fill="none" viewBox="0 0 55 46"><g clip-path="url(#a)"><path stroke="#2B354E" stroke-miterlimit="10" stroke-width=".122" d="M11.554 23.29c6.326 0 11.454-4.877 11.454-10.892S17.88 1.506 11.554 1.506C5.23 1.506.101 6.383.101 12.398S5.229 23.29 11.554 23.29Z"/><path fill="#2B354E" d="M26.663 44.494h28.635L34.462 10.312 21.424 31.98l-.366-10.428a10.872 10.872 0 0 1-3.831 2.98c-1.5.703-3.148 1.07-4.82 1.075v18.887H23.74L34.34 27.577l5.483 8.806h-8.53l-4.63 8.11ZM1.44 20.857v23.521h9.018v-18.77a12.03 12.03 0 0 1-5.095-1.369 11.39 11.39 0 0 1-3.922-3.382Z"/><path stroke="#2B354E" stroke-miterlimit="10" stroke-width=".122" d="M8.874 23.174a16.136 16.136 0 0 1-3.533-8.227C4.488 9.733 8.874 3.244 8.874 3.244s5.605 18.771 5.727 19.698"/><path stroke="#2B354E" stroke-miterlimit="10" stroke-width=".122" d="M19.718 20.046s1.219-7.88-4.508-12.978c-3.656-3.244-6.336-3.823-6.336-3.823s10.844-.348 14.134 7.647M2.416 5.91C4.12 3.591 8.874 3.243 8.874 3.243s-.122-1.158.121-1.39"/><path stroke="#2B354E" stroke-miterlimit="10" stroke-width=".122" d="M11.555 1.506a4.643 4.643 0 0 0-2.681 1.739S7.29 2.318 6.315 2.78M1.197 17.033s6.824 3.012 12.185 1.622c5.362-1.39 9.26-3.824 9.626-7.068"/><path stroke="#2B354E" stroke-miterlimit="10" stroke-width=".122" d="M.1 12.398s5.971 4.403 13.038 2.085c7.068-2.317 8.53-7.415 8.53-7.415"/><path stroke="#2B354E" stroke-miterlimit="10" stroke-width=".122" d="M1.197 7.763s3.168 3.94 9.992 2.434c6.823-1.507 6.336-6.953 6.336-6.953a13.375 13.375 0 0 0-4.387-.81c-3.048.03-5.962 1.203-8.106 3.264-2.145 2.061-3.348 4.843-3.347 7.743a10.47 10.47 0 0 0 1.317 4.963 11.085 11.085 0 0 0 3.557 3.843"/><path stroke="#2B354E" stroke-miterlimit="10" stroke-width=".122" d="M4.61 20.973s6.7 1.506 10.965-.232a19.557 19.557 0 0 0 6.946-4.982M40.31 14.136c1.078 0 1.95-.83 1.95-1.854s-.872-1.854-1.95-1.854c-1.076 0-1.949.83-1.949 1.854s.873 1.854 1.95 1.854Z"/></g><defs><clipPath id="a"><path fill="#fff" d="M0 0h55v46H0z"/></clipPath></defs></svg>
